X: 66
T: Pokryj swym miłosierdzim, Panie, nasze złości
C: Mikołaj Gomółka
%%abc-version 2.0
%%abcx-abcm2ps-target-version 5.9.1 (29 Sep 2008)
%%abc-creator hum2abc beta
%%abcx-conversion-date 2021/10/04 07:59:09
%%abc-edited-by Marta Lawrence
%%abcx-initial-encoding-date 2020-02-13
%%humdrum-veritas 2219220635
%%humdrum-veritas-data 3198090976
%%linebreak <none>
%%barnumbers 0
L: 1/4
M: C|
N: Derived from pl-wn--sd-xvi-qu-273--067_gomolka-mikolaj--pokryj-swym-milosierdzim-panie-nasze-zlosci.krn
%%staves [1 2 3 4]
V: 1
V: 2 clef=alto
V: 3 clef=alto
V: 4 clef=bass
K: F
[V:1] A4A4 [|] 
[V:2] F4E4 [|] 
[V:3] D4C4 [|] 
[V:4] D,4A,,4 [|] 
[V:1] A4A2c4 [|] 
[V:2] D6G2 [|] 
[V:3] F6E2 [|] 
[V:4] D,6C,2 [|] 
[V:1] B2A2c2 [|] 
[V:2] A2GFE2C2 [|] 
[V:3] D2D2C2A,2 [|] 
[V:4] F,2G,2A,2A,,2 [|] 
[V:1] B2A2A2G2 [|] 
[V:2] DEFEDCD2 [|] 
[V:3] D2C2B,2B,2 [|] 
[V:4] B,,2F,,2G,,2G,,2 [|] 
[V:1] A4 :|]  
[V:2] D4 :|]  
[V:3] A,4 :|]  
[V:4] D,4 :|]  
[V:1] A2d4 [I:setbarnb 6][|] 
[V:2] F3G [|] 
[V:3] D4 [|] 
[V:4] D,4 [|] 
[V:1] c2c2B2 [|] 
[V:2] A2A4G2 [|] 
[V:3] F2E2C2D2 [|] 
[V:4] D,2A,2A,2B,2 [|] 
[V:1] cd2dd2B2 [|] 
[V:2] A2>G2F2G2 [|] 
[V:3] E4D2D2 [|] 
[V:4] A,4D,2G,F, [|] 
[V:1] c2A2A3G [|] 
[V:2] C2D2C3B, [|] 
[V:3] G2F2E2E2 [|] 
[V:4] E,2D,2A,,2A,,2 [|] 
[V:1] F2A2B2A2 [|] 
[V:2] A,2D4C2 [|] 
[V:3] D2F4E2 [|] 
[V:4] D,2D,2B,,2C,2 [|] 
[V:1] FEFGA2DE [|] 
[V:2] B,4A,2F2 [|] 
[V:3] D4C2D2 [|] 
[V:4] D,C,D,E,F,2B,,C, [|] 
[V:1] FGA2G2^FE [|] 
[V:2] F2F2D4 [|] 
[V:3] D2C2B,4 [|] 
[V:4] D,E,F,2G,2G,,2 [|] 
[V:1] ^F2A4A2 [|] 
[V:2] D2F4F2 [|] 
[V:3] A,2D4C2 [|] 
[V:4] D,2D,2>E,2F,2 [|] 
[V:1] =F4F3G [|] 
[V:2] D4D3E [|] 
[V:3] B,4A,32 [|] 
[V:4] B,,2>C,2D,32 [|] 
[V:1] A32 |]  
[V:2] F32 |]  
[V:3] x4 |]  
[V:4] x4 |]  


